X: 40977
T: Trip To Dingle, The
R: polka
M: 2/4
K: Dmajor
|:DE/F/ AF|AB F2-|Fd BA|B/c/B/A/ FD|
B,c,/B,/ A,B,|DE FA-|AB FE|1 D2 DA:|2 D2 Dd||
B2 AB|de f2|ED/E/ FE|E/F/E/D/ B,D|
B=c/B/ AB|de fa|ab f/e/d|e2- ed|
B2 AB|de f2|ED/E/ FE|E/F/E/D/ B,A,|
B,2 A,B,|DE FA-|AB FE|D2 DA||

